!!!COM: Gomółka, Mikołaj
!!!CDT: ~1535-after 1591
!!!OTL: Panu ja ufam
!!!OTL@LAT: In Domino confido
!!!AGn: Motet; Psalm
!!!SCn: Gom2011
!!!SCn: Gom2011
!!!voices: 4
**kern	**kern	**kern	**kern
*staff4	*staff3	*staff2	*staff1
*Ivox	*Ivox	*Ivox	*Ivox
*I"Bassus	*I"Tenor	*I"Altus	*I"Cantus
*I'B	*I'T	*I'A	*I'C
*clefF4	*clefGv2	*clefGv2	*clefG2
*k[b-]	*k[b-]	*k[b-]	*k[b-]
*M2/1	*M2/1	*M2/1	*M2/1
*met(C|)	*met(C|)	*met(C|)	*met(C|)
=1-	=1-	=1-	=1-
1F	1F	1A	1c
2D	2A	2d	2f
2G	2B-	2e	2g
=2	=2	=2	=2
2F	2c	2f	2a
2D	2d	2f	2b-
2C	2e	2g	2cc
2F	2f	2a	2cc
=3	=3	=3	=3
2F	2f	2a	2cc
2G	2d	4g	2b-
.	.	4f	.
2A	2c	2e	2a
[2D	[2f	[2a	[2dd
=4	=4	=4	=4
2D]	2f]	2a]	2dd]
2E	2e	2g	1cc
2F	1d	2f	.
2G	.	4e	2bni
.	.	4d	.
=5	=5	=5	=5
2C	2c	2e	2cc
4r	4r	4r	4r
4C	4c	4e	4g
4F	4c	4f	4a
4D	4d	4a	4f
4E	4c	4g	4g
4F	4c	[4f	4a
=6	=6	=6	=6
2G	2B-	4f]	2b-
.	.	4e	.
2F	2c	2f	2a
2r	2r	2r	2r
2C	2c	2e	2g
=7	=7	=7	=7
2C	2e	2c	2g
2FF	4f	2c	2a
.	4e	.	.
2BB-	4d	2d	4.b-
.	4c	.	.
.	.	.	8a
2BB-	4B-	2d	4g
.	4A	.	4f
=8	=8	=8	=8
1C	4G	2.c	4e
.	4F	.	2f
.	2G	.	.
.	.	4B-	4e
1FF	1F	1A	1f
=9	=9	=9	=9
2r	2r	2r	2r
2BB-	2.F	2d	2f
2AA	.	2c	2f
.	4G	.	.
2FF	2A	[2f	2f
=10	=10	=10	=10
2C	2G	2f]	2.g
2C	2G	2e	.
.	.	.	4a
4GG	1G	2.d	1b-
4AA	.	.	.
4BB-	.	.	.
4C	.	4e	.
=11	=11	=11	=11
4D	4F	2f	1a
4E	4G	.	.
2F	4A	2f	.
.	4B-	.	.
2C	2c	2e	2g
2c	2e	2c	2g
=12	=12	=12	=12
2B-	2f	2d	2b-
2B-	2d	2B-	4f
.	.	.	4g
2.A	2f	2c	4a
.	.	.	4b-
.	2e	2c	[2cc
4G	.	.	.
=13	=13	=13	=13
2F	1d	2a	2cc]
2G	.	4g	2bni
.	.	4f	.
2C	2c	2e	2cc
2F	2c	2f	2a
=14	=14	=14	=14
2F	2c	2f	2f
2D	2d	2f	2f
2B-	2d	4d	2g
.	.	4e	.
2A	[2c	[2f	2a
=15	=15	=15	=15
1G	2c]	2f]	1b-
.	2B-	2e	.
2F	2c	2f	2a
2C	2c	2e	2g
=16	=16	=16	=16
2F	2A	2d	2f
2G	2B-	2d	2d
2C	2G	2c	2e
2C	2G	2c	2e
=17	=17	=17	=17
1BB-	2.B-	1d	1f
.	4A	.	.
1C	1G	1c	1e
=18	=18	=18	=18
1C	1E	1G	1c
2FF	2F	2A	2c
2FF	2F	2A	2c
=19	=19	=19	=19
2.BB-	2F	1B-	2.d
.	1F	.	.
4AA	.	.	4c
2GG	.	2B-	2B-
2GG	2E	4A	2B-
.	.	4G	.
=20	=20	=20	=20
2FF	2F	2A	2c
2C	2G	2c	2e
2D	2F	2A	2f
2AA	2c	2e	2a
=21	=21	=21	=21
2BB-	2.B-	2d	4g
.	.	.	4f
2BB-	.	2d	1f
.	4A	.	.
1C	4G	2.c	.
.	4F	.	.
.	2G	.	2e
.	.	4B-	.
=22	=22	=22	=22
0FF	0F	0A	0f
=23	=23	=23	=23
1C	1E	1G	1c
2FF	2F	2A	2c
2FF	2F	2A	2c
=24	=24	=24	=24
2.BB-	2F	1B-	2.d
.	1F	.	.
4AA	.	.	4c
2GG	.	2B-	2B-
2GG	2E	4A	2B-
.	.	4G	.
=25	=25	=25	=25
2FF	2F	2A	2c
2C	2G	2c	2e
2D	2F	2A	2f
2AA	2c	2e	2a
=26	=26	=26	=26
2BB-	2.B-	2d	4g
.	.	.	4f
2BB-	.	2d	1f
.	4A	.	.
1C	4G	2.c	.
.	4F	.	.
.	2G	.	2e
.	.	4B-	.
=27	=27	=27	=27
0FF	0F	0A	0f
==	==	==	==
*-	*-	*-	*-
!!!CNT: Polish
!!!OCY: Poland
!!!LYR: Jan Kochanowski (1530-1584/08/22)
!!!GTL: Melodiae na Psałterz Polski
!!!EFL: 11/150
!!!PPR: Łazarz Andrysowicz
!!!PPP: Kraków
!!!PDT: 1580
!!!YEC: 2015 Marcin Konik
!!!ENC: Marcin Konik
!!!END: 2015/03/06
!!!EED: Marcin Konik
!!!EEV: 2015/03/06
!!!ONB: Translated from MusicXML and edited on 2015/03/06 by Marcin Konik
!!!CharacterEncoding: utf-8
!!muse2ps: i2I150v85,85,85,150Q16
!!title: @{OTL}, @{GTL}, ed. @{ENC}
